app/assets/icons/polaris/SidebarRightMajor.svg

<svg viewBox="0 0 20 20" xmlns="http://www.w3.org/2000/svg"><path d="M17.5 1h-6.5v18h6.5a1.5 1.5 0 0 0 1.5-1.5v-15a1.5 1.5 0 0 0-1.5-1.5zm-16.5 1a1 1 0 0 1 1-1h2v2h-1v1h-2v-2zm1 17a1 1 0 0 1-1-1v-2h2v1h1v2h-2zm4-18h3v2h-3v-2zm3 16h-3v2h3v-2zm-6-11v3h-2v-3h2zm0 8v-3h-2v3h2z"/></svg>

<svg viewBox="0 0 20 20" xmlns="http://www.w3.org/2000/svg"><path d="M17.5 1H11v18h6.5a1.5 1.5 0 0 0 1.5-1.5v-15A1.5 1.5 0 0 0 17.5 1zM1 2a1 1 0 0 1 1-1h2v2H3v1H1V2zm1 17a1 1 0 0 1-1-1v-2h2v1h1v2H2zM6 1h3v2H6V1zm3 16H6v2h3v-2zM3 6v3H1V6h2zm0 8v-3H1v3h2z"/></svg>
